img/arrow-43.svg

<svg fill="none" height="14" viewBox="0 0 16 14" width="16" xmlns="http://www.w3.org/2000/svg"><path d="m15.2652 7.59866c.3306-.33063.3306-.86669 0-1.19732l-5.38794-5.3879c-.33063-.330628-.86669-.330628-1.19732 0-.33062.33063-.33062.86668 0 1.19731l4.78926 4.78925-4.78926 4.7892c-.33062.3307-.33062.8667 0 1.1974.33063.3306.86669.3306 1.19732 0zm-14.14473-1.44529c-.467584 0-.846631.37905-.846631.84663s.379047.84663.846631.84663zm13.54603 0h-13.54603v1.69326h13.54603z" fill="#0080ff"/></svg>

<svg width="16" height="14" viewBox="0 0 16 14" fill="none" xmlns="http://www.w3.org/2000/svg">
<path d="M15.2652 7.59866C15.5958 7.26803 15.5958 6.73197 15.2652 6.40134L9.87726 1.01344C9.54663 0.682812 9.01057 0.682812 8.67994 1.01344C8.34932 1.34407 8.34932 1.88012 8.67994 2.21075L13.4692 7L8.67994 11.7892C8.34932 12.1199 8.34932 12.6559 8.67994 12.9866C9.01057 13.3172 9.54663 13.3172 9.87726 12.9866L15.2652 7.59866ZM1.12047 6.15337C0.652886 6.15337 0.273839 6.53242 0.273839 7C0.273839 7.46758 0.652886 7.84663 1.12047 7.84663V6.15337ZM14.6665 6.15337L1.12047 6.15337V7.84663L14.6665 7.84663V6.15337Z" fill="#0080FF"/>
</svg>
